src/assets/best-on.svg

<?xml version="1.0" encoding="UTF-8"?>
<svg width="60px" height="60px" viewBox="0 0 60 60" version="1.1" xmlns="http://www.w3.org/2000/svg" xmlns:xlink="http://www.w3.org/1999/xlink">
    <!-- Generator: Sketch 55.2 (78181) - https://sketchapp.com -->
    <title>noun_Trophy_772056 Copy 2</title>
    <desc>Created with Sketch.</desc>
    <defs>
        <linearGradient x1="50%" y1="0%" x2="50%" y2="100%" id="linearGradient-1">
            <stop stop-color="#FCC200" offset="0%"></stop>
            <stop stop-color="#DBA515" offset="53.1355574%"></stop>
            <stop stop-color="#B78628" offset="100%"></stop>
        </linearGradient>
    </defs>
    <g id="page" stroke="none" stroke-width="1" fill="none" fill-rule="evenodd">
        <g id="Homepage_V01_defaul-Copy" transform="translate(-494.000000, -320.000000)" fill="url(#linearGradient-1)">
            <g id="noun_Trophy_772056-Copy-2" transform="translate(494.000000, 320.000000)">
                <path d="M59.9712875,4.86860273 C59.9712875,4.60536279 59.9273544,4.38621888 59.8401537,4.21050287 C59.752953,3.94726293 59.577886,3.77221505 59.3156183,3.68402298 C59.1405513,3.50830698 58.9222167,3.42078304 58.659949,3.42078304 L49.4839079,3.42078304 L49.4839079,1.18457975 C49.4839079,0.921339807 49.352774,0.658099862 49.0905063,0.394859917 C48.8282386,0.131619972 48.5227034,0 48.1725694,0 L11.7300067,0 C11.3805384,0 11.0743375,0.131619972 10.8120698,0.394859917 C10.6370028,0.658099862 10.5498021,0.921339807 10.5498021,1.18457975 L10.5498021,3.42145116 L1.24262709,3.42145116 C0.980359394,3.42145116 0.762024863,3.5089751 0.586957846,3.68469111 C0.411890829,3.77221505 0.281422634,3.94793105 0.193556299,4.21050287 C0.106355618,4.38621888 0.0624224499,4.60536279 0.0624224499,4.86860273 C0.0624224499,4.86860273 -0.409526276,20.2387421 1.24196144,24.9997773 C2.34095628,28.1680103 6.57318478,32.6310632 11.2048057,33.9472629 C13.0400139,38.3334818 17.9778357,41.7976928 26.0182711,44.3419001 L26.2805388,52.8945259 L15.2692894,55.5262572 C15.0070217,55.5262572 14.7886871,55.6578772 14.6136201,55.9211171 C14.4385531,56.184357 14.3513524,56.403501 14.3513524,56.579217 L14.3513524,60 L45.6823575,60 L45.6823575,56.579217 C45.6823575,56.403501 45.5951569,56.184357 45.4200899,55.9211171 C45.2450228,55.6578772 45.0266883,55.5262572 44.7644206,55.5262572 L33.4902379,52.8945259 L33.7525056,44.3419001 C41.2983599,42.6923077 46.2794492,39.2274286 48.6971048,33.9472629 C53.416592,32.6317313 57.5629511,28.1686785 58.659949,24.9997773 C60.3101054,20.2360697 59.9712875,4.86860273 59.9712875,4.86860273 Z M10.5498021,27.7631286 C8.53952686,27.0616008 6.68035508,25.9358158 6.2237164,23.9474856 C5.58601981,21.1734444 5.84828751,13.9269966 6.00604752,10.6859383 C6.04998069,9.78397399 6.79085365,9.07910561 7.69081794,9.07910561 L10.5498021,9.07910561 L10.5498021,27.7631286 Z M53.8099936,23.9474856 C53.3060935,25.964545 51.4063168,27.0616008 49.4839079,27.7631286 L49.4839079,9.07910561 L52.3515455,9.07910561 C53.2481816,9.07910561 53.9877232,9.77929714 54.0356503,10.6779208 C54.209386,13.9176429 54.5009425,21.1827981 53.8099936,23.9474856 Z" id="Shape"></path>
            </g>
        </g>
    </g>
</svg>

<svg width="60" height="60" xmlns="http://www.w3.org/2000/svg"><defs><linearGradient x1="50%" y1="0%" x2="50%" y2="100%" id="a"><stop stop-color="#FCC200" offset="0%"/><stop stop-color="#DBA515" offset="53.136%"/><stop stop-color="#B78628" offset="100%"/></linearGradient></defs><path d="M59.971 4.869c0-.264-.044-.483-.13-.658a.79.79 0 00-.525-.527.887.887 0 00-.656-.263h-9.176V1.185c0-.264-.131-.527-.393-.79A1.255 1.255 0 0048.173 0H11.73c-.35 0-.656.132-.918.395-.175.263-.262.526-.262.79V3.42H1.243a.887.887 0 00-.656.264c-.175.087-.306.263-.393.526a1.473 1.473 0 00-.132.658s-.472 15.37 1.18 20.13c1.099 3.169 5.331 7.632 9.963 8.948 1.835 4.386 6.773 7.85 14.813 10.395l.263 8.553-11.012 2.631c-.262 0-.48.132-.655.395-.175.263-.263.483-.263.658V60h31.331v-3.42c0-.176-.087-.396-.262-.659-.175-.263-.393-.395-.656-.395L33.49 52.895l.263-8.553c7.545-1.65 12.526-5.115 14.944-10.395 4.72-1.315 8.866-5.778 9.963-8.947 1.65-4.764 1.311-20.131 1.311-20.131zM10.55 27.763c-2.01-.701-3.87-1.827-4.326-3.816-.638-2.774-.376-10.02-.218-13.261a1.686 1.686 0 011.685-1.607h2.859v18.684zm43.26-3.816c-.504 2.018-2.404 3.115-4.326 3.816V9.08h2.868c.896 0 1.636.7 1.684 1.599.173 3.24.465 10.505-.226 13.27z" fill="url(#a)" fill-rule="evenodd"/></svg>
